X: 18364
T: Humours Of Whiskey, The
R: slip jig
M: 9/8
K: Gmajor
S:
Z:
K: G
BcA BEE BEE|BcA BEE FED|BcA BEE BEE|FAA A2 G FED:|
G2A BcA BcA|G2A Bcd ecA|G2A BcA Bcd|ecA A2 G FED:|

